X:1
T:Partition sans titre
C:Compositeur / Arrangeur
L:1/8
M:4/4
I:linebreak $
K:D
V:1 treble nm="Violon" snm="Vln."
V:1
"D" f2 df"A" e2 ce |"D" dedc"G" B2 AG |"D" FAAA"G" PB2 AG |"D" FAFD E3 a |"D" f2 df"A" e2 ce | %5
"D" dedc"G" B2 AG |"D" f2 df"A" e2 ce |1"D" dfec d2 d2 :|2"D" dfec d2 AA |:"D" ABAG FAdA | %10
"G" B2 Gd B2 GB |"D" ABAG FAdf |"A" edcd e2 e2 |"D" ABAG FAdA |"G" B2 Gd B2 GB |"D" ABAG FAdf |1 %16
"G" ge"A"ce"D" d2 AA :|2"G" ge"A"ce"D" d2 d2 |] %18
